X:1
T:Title
%%score { ( 1 3 ) | ( 2 4 ) }
L:1/8
M:4/4
K:Bb
V:1 treble nm="Grand Piano"
V:3 treble 
V:2 bass 
V:4 bass 
V:1
 z4 z2[Q:1/4=100] [B,D]>[CE] | [DF]>[DF] [DF]>[DF] [DF][CE] [B,D]>[CE] | %2
 [DF]>[DF] [DF]>[DF] [DF]2 D>F | B>B B>B BA B>c | d>c c>c c2 D>[CE] | %5
 [DF]>[DF] [DF]>[DF] [DF][CE] [B,D]>[CE] | [DF]>[DF] [DF]>[DF] [DF]2 D>F | B>B B>B BA B>c | %8
[M:3/4] d>B A>c [DB]2 |[M:1/4] [DF]>[DB] |[M:4/4] d4 B2 z2 | B4 G2 z2 | F2 F2 z2 d2 | c6 z2 | %14
 d4 B2 z2 | B4 G2 z2 | F2 B2 z2 d2 |[M:7/8] B-B-B- B- B3 |] %18
V:2
 z4 z2 [B,,F,]>[B,,F,] | [B,,B,]>[B,,B,] [B,,B,]>[B,,B,] [B,,B,][B,,F,] [B,,F,]>[B,,F,] | %2
 [B,,B,]>[B,,B,] [B,,B,]>[B,,B,] [B,,B,]2 B,>[A,C] | %3
 [G,B,D]>[G,B,D] [G,B,D]>[G,B,D] [G,B,D][G,B,D] [G,B,D]>[G,B,=E] | %4
 [F,B,F]>[F,A,F] [F,A,F]>[F,A,F] [F,A,F]2 [B,,F,B,]>[B,,F,] | %5
 [B,,B,]>[B,,B,] [B,,B,]>[B,,B,] [B,,B,][B,,F,] [B,,F,]>[B,,F,] | %6
 [B,,B,]>[B,,B,] [B,,B,]>[B,,B,] [B,,B,]2 B,>[A,C] | %7
 [G,B,D]>[G,B,D] [G,B,D]>[G,B,D] [G,B,D][G,B,D] [G,B,D]>[G,B,=E] | %8
[M:3/4] [F,B,F]>[F,D] [F,C]>[F,E] [B,,F,]2 |[M:1/4] [B,,B,]>[B,,B,] | %10
[M:4/4] [B,,B,]>[B,,B,] [B,,B,]>[B,,B,] B,,B,, D,>[D,B,] | %11
 [E,B,]>[E,B,] [E,B,]>[E,B,] [E,B,E][E,B,] [E,B,E]>[E,B,E] | %12
 [B,,B,]>[B,,B,] [D,B,]>[D,B,][K:treble] [F,A,F]2 [B,F]>[K:bass]B, | %13
 [F,A,F]>[F,A,] [F,A,]>[F,A,] [F,A,]2 [F,A,]>[D,B,] | %14
 [B,,B,]>[B,,B,] [B,,B,]>[B,,B,] B,,B,, D,>[D,B,] | %15
 [E,B,]>[E,B,] [E,B,]>[E,B,] [E,B,E][E,B,] [E,B,E]>[F,B,E] | [B,D]>B, [B,D]>B, [F,A,E]2 [A,F]>A, | %17
[M:7/8] z z/ F,<G,G,/ F,3 |] %18
V:3
 x8 | x8 | x8 | x8 | x8 | x8 | x8 | x8 |[M:3/4] x6 |[M:1/4] x2 | %10
[M:4/4] F>F F>F [DF][DF] [B,FB]>[Fc] | G>G G>G z E G>G | D>D B->[FB] c2 z z/ F/ | %13
 z z/ F/ F>F F2 F>[FB] | F>F F>F [DF][DF] [B,_AB]>[Ac] | G>G G>G z E G>G | %16
 z z/ D/ z z/ D/ c2 z z/ F/ |[M:7/8] [B,D]>DE>E D3 |] %18
V:4
 x8 | x8 | x8 | x8 | x8 | x8 | x8 | x8 |[M:3/4] x6 |[M:1/4] x2 |[M:4/4] x8 | x8 | %12
 x4[K:treble] x7/2[K:bass] x/ | x8 | x8 | x8 | F,2 F,2 z2 F,2 |[M:7/8] B,,-B,,-B,,- B,,- B,,3 |] %18

